!!!COM: Music21
!!!OTL: Rumba
!!!OMV: pezas_rumbas_rumba-5_rumba-partitura.musicxml
**kern
*part2
*staff2
*I"Gaita
*I'Bag
*clefG^2
*k[]
*M2/4
=1
!
8eeL
16eeL
16ddJJ
8eeL
16eeL
16ddJJ
=
8ccL
8cc~J
8cc~L
16ddL
16eeJJ
=
8ffL
16ffL
16eeJJ
8ffL
16ffL
16eeJJ
=
[4dd
8ddL]
16eeL
16ffJJ
=
8ggL
16ggL
16ffJJ
8ggL
16ggL
16ffJJ
=
8eeL
16eeL
16ccJJ
8ffL
16ffL
16eeJJ
!!linebreak:original
=
8ddL
16ddL
16bJJ
8eeL
16eeL
16ddJJ
=
8ccL
8cc~J
8cc~L
8cc~J
=||
*M2/4
!
8eeL
16eeL
16ddJJ
8eeL
16eeL
16ddJJ
=
8ccL
8cc~J
8cc~L
16ddL
16eeJJ
=
8ffL
16ffL
16eeJJ
8ffL
16ffL
16eeJJ
=
[4dd
8ddL]
16eeL
16ffJJ
!!linebreak:original
=
8ggL
16ggL
16ffJJ
8ggL
16ggL
16ffJJ
=
8eeL
16eeL
16ccJJ
8ffL
16ffL
16eeJJ
=
8ddL
16ddL
16bJJ
8eeL
16eeL
16ddJJ
=||
2r
.
.
=||
2r
.
.
.
=
2r
.
.
.
=
2r
.
.
.
!!linebreak:original
=
4r
8ccL
8eeJ
=||
8.eeL
16ccJk
8ddL
8ffJ
=
8eeL
8ccJ
8ccL
8eeJ
=
8.eeL
16ccJk
8ddL
8bJ
=
4cc
8ccL
8eeJ
=||
8.eeL
16ccJk
8ddL
8ffJ
=
8eeL
8ccJ
8ccL
8eeJ
=
8.eeL
16ccJk
8ddL
8bJ
!!pagebreak:original
=
4cc
8ccL
8eeJ
=
8.eeL
16ccJk
8ddL
8ffJ
=
8eeL
8ccJ
8ccL
8eeJ
=
8.eeL
16ccJk
8ddL
8bJ
=
2cc
=||
8cc
8r
4r
==
*-
!!!system-decoration: s1,s2,s3
